bundle/image/pages/result/profile/img/t1.svg

<svg width="79" height="38" fill="none" xmlns="http://www.w3.org/2000/svg"><path opacity=".5" d="M7.76 14.72v4.68H29.4v-4.68H7.76zm20.08 0v.88c-.36 11.12-.8 15.6-1.76 16.64-.44.44-.88.56-1.6.56-1 0-3.08-.04-5.32-.24.88 1.36 1.52 3.44 1.6 4.84 2.36.08 4.68.12 6.08-.08 1.52-.24 2.64-.6 3.64-1.96 1.4-1.64 1.88-6.4 2.32-18.56.04-.6.08-2.08.08-2.08h-5.04zM12.28.56C9.88 6.64 5.44 12.24.4 15.56c1.16.92 3.24 2.84 4.16 3.88 5.04-3.96 9.92-10.4 12.92-17.36L12.28.56zM27.52.48 22.8 2.36c3.16 6.12 8.08 12.6 12.6 16.76.92-1.36 2.76-3.32 4.08-4.36-4.4-3.36-9.44-9.2-11.96-14.28zm-12.6 15.6c-.64 7.12-1.6 13.88-12.32 17.4 1.12 1.04 2.52 3.08 3.12 4.4 11.92-4.44 13.64-12.8 14.4-21.8h-5.2zm46.56-2.52v4.52h17.4v-4.52h-17.4zM59.04 2.84v11.64c0 5.96-.44 14.04-4.92 19.92 1.16.56 3 2.12 3.68 3.16 5.2-6.64 5.92-16.6 5.92-23v-9.4c.72-.12 1-.36 1.04-.72l-5.72-1.6zM73.56.44c-3.28 1.6-8.6 3.08-13.52 4.04.6 1 1.32 2.8 1.56 3.92 5.28-.84 11.4-2.24 16-4.2L73.56.44zm-4.64 14.52v22.6h4.76v-22.6h-4.76zM41.76 8.28v4.56h14.96V8.28H41.76zM47.28.04V37.6h4.6V.04h-4.6zm-.24 11.32C46 16.48 43.48 22.72 40.72 26.2c.72 1.2 1.84 3.16 2.28 4.48 3.08-4.12 5.6-11.88 6.88-18.32l-2.84-1zm4.48 3.52-2.2 2.16c1.36 2 4.08 6.44 5.16 8.84l2.68-3.8c-.8-1.16-4.6-6.08-5.64-7.2z" fill="#fff"/></svg>

<svg width="79" height="38" viewBox="0 0 79 38" fill="none" xmlns="http://www.w3.org/2000/svg">
<path opacity="0.5" d="M7.76 14.72V19.4H29.4V14.72H7.76ZM27.84 14.72V15.6C27.48 26.72 27.04 31.2 26.08 32.24C25.64 32.68 25.2 32.8 24.48 32.8C23.48 32.8 21.4 32.76 19.16 32.56C20.04 33.92 20.68 36 20.76 37.4C23.12 37.48 25.44 37.52 26.84 37.32C28.36 37.08 29.48 36.72 30.48 35.36C31.88 33.72 32.36 28.96 32.8 16.8C32.84 16.2 32.88 14.72 32.88 14.72H27.84ZM12.28 0.559999C9.88 6.64 5.44 12.24 0.4 15.56C1.56 16.48 3.64 18.4 4.56 19.44C9.6 15.48 14.48 9.04 17.48 2.08L12.28 0.559999ZM27.52 0.479998L22.8 2.36C25.96 8.48 30.88 14.96 35.4 19.12C36.32 17.76 38.16 15.8 39.48 14.76C35.08 11.4 30.04 5.56 27.52 0.479998ZM14.92 16.08C14.28 23.2 13.32 29.96 2.6 33.48C3.72 34.52 5.12 36.56 5.72 37.88C17.64 33.44 19.36 25.08 20.12 16.08H14.92ZM61.48 13.56V18.08H78.88V13.56H61.48ZM59.04 2.84V14.48C59.04 20.44 58.6 28.52 54.12 34.4C55.28 34.96 57.12 36.52 57.8 37.56C63 30.92 63.72 20.96 63.72 14.56V5.16C64.44 5.04 64.72 4.8 64.76 4.44L59.04 2.84ZM73.56 0.439998C70.28 2.04 64.96 3.52 60.04 4.48C60.64 5.48 61.36 7.28 61.6 8.4C66.88 7.56 73 6.16 77.6 4.2L73.56 0.439998ZM68.92 14.96V37.56H73.68V14.96H68.92ZM41.76 8.28V12.84H56.72V8.28H41.76ZM47.28 0.0399985V37.6H51.88V0.0399985H47.28ZM47.04 11.36C46 16.48 43.48 22.72 40.72 26.2C41.44 27.4 42.56 29.36 43 30.68C46.08 26.56 48.6 18.8 49.88 12.36L47.04 11.36ZM51.52 14.88L49.32 17.04C50.68 19.04 53.4 23.48 54.48 25.88L57.16 22.08C56.36 20.92 52.56 16 51.52 14.88Z" fill="white"/>
</svg>
